apps/common/mobile/resources/icons/common/icon-table-add-row-below-rtl.svg

<svg width="24" height="24" viewBox="0 0 24 24" xmlns="http://www.w3.org/2000/svg">
<path d="M4.25 3.54297C3.28351 3.54298 2.5 4.32648 2.5 5.29297V11.293C2.50004 11.7071 2.83581 12.043 3.25 12.043C3.66419 12.043 3.99996 11.7071 4 11.293V10.043H8.5V15.1035H10C11.5188 15.1035 12.75 16.3357 12.75 17.8545C12.7496 18.7481 12.3213 19.5408 11.6602 20.043H20.25C20.3103 20.043 20.37 20.0401 20.4287 20.0342C21.2525 19.9506 21.9076 19.2954 21.9912 18.4717C21.9972 18.4129 22 18.3533 22 18.293V5.29297C22 4.32647 21.2165 3.54297 20.25 3.54297H4.25ZM20.5 13.543H16V10.043H20.5V13.543ZM14.5 13.543H10V10.043H14.5V13.543ZM20.25 5.04297C20.3881 5.04297 20.5 5.1549 20.5 5.29297V8.54297H16V5.04297H20.25ZM14.5 8.54297H10V5.04297H14.5V8.54297ZM8.5 8.54297H4V5.29297C4 5.1549 4.11193 5.04297 4.25 5.04297H8.5V8.54297Z" fill="#444444"/>
<path d="M6 13.1035C5.58579 13.1035 5.25 13.4393 5.25 13.8535V17.1045L2 17.1035C1.58581 17.1035 1.25004 17.4393 1.25 17.8535C1.25013 18.2676 1.58587 18.6035 2 18.6035L5.25 18.6045V21.8535C5.25009 22.2677 5.58584 22.6035 6 22.6035C6.41412 22.6035 6.74991 22.2676 6.75 21.8535V18.6045L10 18.6035C10.4141 18.6035 10.7499 18.2676 10.75 17.8535C10.75 17.4393 10.4142 17.1035 10 17.1035L6.75 17.1045V13.8535C6.75 13.4393 6.41418 13.1036 6 13.1035Z" fill="#446ECA"/>
</svg>

<svg xmlns="http://www.w3.org/2000/svg" width="24" height="24" fill="none" viewBox="0 0 24 24">
  <g class="icon-table-add-row-below-rtl">
    <path fill="#446ECA" d="M2 18.604a.75.75 0 0 1 0-1.5h3.25v-3.25a.75.75 0 1 1 1.5 0v3.25H10a.75.75 0 1 1 0 1.5H6.75v3.25a.75.75 0 0 1-1.5 0v-3.25H2Z" class="icon-fill-blue-primary"/>
    <path fill="#444" fill-rule="evenodd" d="M4.25 3.543a1.75 1.75 0 0 0-1.75 1.75v6a.75.75 0 0 0 1.5 0v-1.25h4.5v5.06H10a2.75 2.75 0 0 1 2.75 2.752c0 .893-.429 1.686-1.09 2.188h8.59a1.751 1.751 0 0 0 1.75-1.75v-13a1.75 1.75 0 0 0-1.75-1.75h-16Zm16.25 10H16v-3.5h4.5v3.5Zm-6 0H10v-3.5h4.5v3.5Zm5.75-8.5a.25.25 0 0 1 .25.25v3.25H16v-3.5h4.25Zm-5.75 3.5H10v-3.5h4.5v3.5Zm-6 0H4v-3.25a.25.25 0 0 1 .25-.25H8.5v3.5Z" class="icon-fill-gray-primary" clip-rule="evenodd"/>
  </g>
</svg>
